X:2
T:Sorry to Meet, Happy to Part
T:(McCullough's No. 2)
R:reel
C: 1974, 2010 L.E. McCullough
M:4/4
L:1/8
K:G
|:~G3 A ~B3 d | ~e3 g fedf | e~B3 BAGB | ~A2 BG AGEA |
~G3 A ~B3 d | ~e2 af gfed | ~e3 g fedB | A3 B  AGED:|
|:B~e3 ~g3 a |~g3 a gfed | B~e3 gfed | (3B^cd eg fedf |
B~e3 ~g3 f |~g3 a gfeg | e~B3 gedB | A2 BG AGEA:|
<end>
<start>
